svg/emoji_u1f9c0.svg

<svg width="128" height="128" xmlns="http://www.w3.org/2000/svg"><path d="M31.13 58.04h.01c-.03.2-.04.41-.04.62 0 2.49 2.12 4.51 4.75 4.51 2.62 0 4.75-2.02 4.75-4.51 0-.68-.16-1.33-.44-1.91l36.96-5.3c.67 4.71 4.72 8.34 9.62 8.34 5.37 0 9.72-4.35 9.72-9.72 0-.47-.04-.92-.1-1.37l12.08-1.73c4.04-.57 8.06 2.26 8.68 6.18v.01c.05.32.08.64.09.97L117 90.79a7.313 7.313 0 0 1-6.41 7.35l-91.12 10.4c-4.35.54-8.19-2.83-8.21-7.21l-.46-33.98c0-.14 0-.28.01-.42a7.32 7.32 0 0 1 6.28-6.87l14.04-2.02zm76.64 18.68c0-4.09-3.31-7.4-7.4-7.4s-7.39 3.31-7.39 7.4 3.31 7.39 7.39 7.39c4.09 0 7.4-3.3 7.4-7.39zM79.7 87.06c0-2.52-2.04-4.56-4.56-4.56-2.52 0-4.56 2.04-4.56 4.56 0 2.52 2.04 4.56 4.56 4.56 2.53 0 4.56-2.05 4.56-4.56zM67.04 73.47c0-6.21-5.03-11.25-11.25-11.25s-11.25 5.04-11.25 11.25 5.03 11.25 11.25 11.25 11.25-5.03 11.25-11.25zM43.63 95.31c0-3.53-2.86-6.38-6.38-6.38s-6.38 2.86-6.38 6.38 2.86 6.38 6.38 6.38 6.38-2.85 6.38-6.38zM27.82 77.99c0-1.89-1.53-3.42-3.42-3.42s-3.42 1.53-3.42 3.42 1.53 3.42 3.42 3.42 3.42-1.53 3.42-3.42z" fill="#fbc21a"/><path d="M96.35 48.7c-.97-3.39-4.91-5.9-9.44-5.9-5.27 0-9.83 3.51-9.83 7.72 0 .33-.02.62.02.94l-36.96 5.3-.04.01c-.75-1.11-2.38-1.88-4.26-1.88-2.55 0-4.63 1.4-4.72 3.16l-14.04 2.01a7.32 7.32 0 0 0-6.28 6.87c.15-6.43 3.71-8.24 3.71-8.24l49.61-35.51c4.85-3.53 11.05-4.66 16.82-3.03 5.53 1.56 12.43 3.92 17.7 7.07 6.13 3.67 11.79 9.45 15.41 13.59.23.27 1.54 1.88 2.22 4.01.72 2.23.81 5.03.83 8.34-.62-3.92-4.64-6.75-8.68-6.18L96.35 48.7zM84.26 30.61c0-1.96-2.15-3.54-4.81-3.54-2.66 0-4.82 1.59-4.82 3.54s2.15 3.55 4.82 3.55c2.66 0 4.81-1.59 4.81-3.55zM63.5 40.8c0-2.66-3.22-4.81-7.2-4.81-3.97 0-7.19 2.15-7.19 4.81 0 2.66 3.22 4.82 7.19 4.82 3.97-.01 7.2-2.16 7.2-4.82z" fill="#fde283"/><circle cx="100.38" cy="76.72" r="7.4" fill="#c47930"/><path d="M96.2 48.72l.15-.02c.06.45.1.91.1 1.37 0 5.37-4.35 9.72-9.72 9.72-4.89 0-8.95-3.62-9.62-8.34l.34-.05 18.75-2.68z" fill="#c47930"/><path d="M96.35 48.7l-19.24 2.75c-.05-.32-.02-.6-.02-.94 0-4.21 4.55-7.72 9.83-7.72 4.52.01 8.46 2.52 9.43 5.91z" fill="#e5ab4c"/><ellipse cx="79.45" cy="30.61" rx="4.81" ry="3.55" fill="#e5ab4c"/><circle cx="75.14" cy="87.06" r="4.56" fill="#c47930"/><circle cx="55.79" cy="73.47" r="11.25" fill="#c47930"/><ellipse cx="56.3" cy="40.8" rx="7.2" ry="4.81" fill="#e5ab4c"/><circle cx="37.25" cy="95.31" r="6.38" fill="#c47930"/><path d="M40.11 56.76l.04-.01c.29.58.44 1.23.44 1.91 0 2.49-2.13 4.51-4.75 4.51-2.63 0-4.75-2.02-4.75-4.51 0-.21.01-.42.04-.62l8.98-1.28z" fill="#c47930"/><path d="M40.11 56.76l-8.97 1.28h-.01c.09-1.76 2.17-3.16 4.72-3.16 1.89 0 3.51.77 4.26 1.88z" fill="#e5ab4c"/><ellipse cx="24.41" cy="77.99" rx="3.42" ry="3.42" fill="#c47930"/></svg>

<?xml version="1.0" encoding="UTF-8" standalone="no"?>
<!DOCTYPE svg PUBLIC "-//W3C//DTD SVG 1.1//EN" "http://www.w3.org/Graphics/SVG/1.1/DTD/svg11.dtd">
<svg width="100%" height="100%" viewBox="0 0 128 128" version="1.1" xmlns="http://www.w3.org/2000/svg" xmlns:xlink="http://www.w3.org/1999/xlink" xml:space="preserve" xmlns:serif="http://www.serif.com/" style="fill-rule:evenodd;clip-rule:evenodd;stroke-linejoin:round;stroke-miterlimit:2;">
    <path d="M31.13,58.04L31.14,58.04C31.11,58.24 31.1,58.45 31.1,58.66C31.1,61.15 33.22,63.17 35.85,63.17C38.47,63.17 40.6,61.15 40.6,58.66C40.6,57.98 40.44,57.33 40.16,56.75L77.12,51.45C77.79,56.16 81.84,59.79 86.74,59.79C92.11,59.79 96.46,55.44 96.46,50.07C96.46,49.6 96.42,49.15 96.36,48.7L108.44,46.97C112.48,46.4 116.5,49.23 117.12,53.15L117.12,53.16C117.17,53.48 117.2,53.8 117.21,54.13L117,90.79C117.047,94.497 114.269,97.683 110.59,98.14L19.47,108.54C15.12,109.08 11.28,105.71 11.26,101.33L10.8,67.35C10.8,67.21 10.8,67.07 10.81,66.93C10.99,63.446 13.636,60.551 17.09,60.06L31.13,58.04ZM107.77,76.72C107.77,72.63 104.46,69.32 100.37,69.32C96.28,69.32 92.98,72.63 92.98,76.72C92.98,80.81 96.29,84.11 100.37,84.11C104.46,84.11 107.77,80.81 107.77,76.72ZM79.7,87.06C79.7,84.54 77.66,82.5 75.14,82.5C72.62,82.5 70.58,84.54 70.58,87.06C70.58,89.58 72.62,91.62 75.14,91.62C77.67,91.62 79.7,89.57 79.7,87.06ZM67.04,73.47C67.04,67.26 62.01,62.22 55.79,62.22C49.57,62.22 44.54,67.26 44.54,73.47C44.54,79.68 49.57,84.72 55.79,84.72C62.01,84.72 67.04,79.69 67.04,73.47ZM43.63,95.31C43.63,91.78 40.77,88.93 37.25,88.93C33.73,88.93 30.87,91.79 30.87,95.31C30.87,98.83 33.73,101.69 37.25,101.69C40.77,101.69 43.63,98.84 43.63,95.31ZM27.82,77.99C27.82,76.1 26.29,74.57 24.4,74.57C22.51,74.57 20.98,76.1 20.98,77.99C20.98,79.88 22.51,81.41 24.4,81.41C26.29,81.41 27.82,79.88 27.82,77.99Z" style="fill:rgb(251,194,26);fill-rule:nonzero;"/>
    <path d="M96.35,48.7C95.38,45.31 91.44,42.8 86.91,42.8C81.64,42.8 77.08,46.31 77.08,50.52C77.08,50.85 77.06,51.14 77.1,51.46L40.14,56.76L40.1,56.77C39.35,55.66 37.72,54.89 35.84,54.89C33.29,54.89 31.21,56.29 31.12,58.05L17.08,60.06C13.626,60.551 10.98,63.446 10.8,66.93C10.95,60.5 14.51,58.69 14.51,58.69L64.12,23.18C68.97,19.65 75.17,18.52 80.94,20.15C86.47,21.71 93.37,24.07 98.64,27.22C104.77,30.89 110.43,36.67 114.05,40.81C114.28,41.08 115.59,42.69 116.27,44.82C116.99,47.05 117.08,49.85 117.1,53.16C116.48,49.24 112.46,46.41 108.42,46.98L96.35,48.7ZM84.26,30.61C84.26,28.65 82.11,27.07 79.45,27.07C76.79,27.07 74.63,28.66 74.63,30.61C74.63,32.56 76.78,34.16 79.45,34.16C82.11,34.16 84.26,32.57 84.26,30.61ZM63.5,40.8C63.5,38.14 60.28,35.99 56.3,35.99C52.33,35.99 49.11,38.14 49.11,40.8C49.11,43.46 52.33,45.62 56.3,45.62C60.27,45.61 63.5,43.46 63.5,40.8Z" style="fill:rgb(253,226,131);fill-rule:nonzero;"/>
    <circle cx="100.38" cy="76.72" r="7.4" style="fill:rgb(196,121,48);"/>
    <path d="M77.106,51.42C77.062,51.112 77.09,50.839 77.09,50.51C77.09,46.3 81.64,42.79 86.92,42.79C91.44,42.8 95.38,45.31 96.35,48.7C96.41,49.15 96.45,49.61 96.45,50.07C96.45,55.44 92.1,59.79 86.73,59.79C81.84,59.79 77.78,56.17 77.11,51.45L77.106,51.42Z" style="fill:rgb(209,137,67);fill-rule:nonzero;"/>
    <ellipse cx="79.45" cy="30.61" rx="4.81" ry="3.55" style="fill:rgb(229,171,76);"/>
    <circle cx="75.14" cy="87.06" r="4.56" style="fill:rgb(196,121,48);"/>
    <circle cx="55.79" cy="73.47" r="11.25" style="fill:rgb(196,121,48);"/>
    <ellipse cx="56.3" cy="40.8" rx="7.2" ry="4.81" style="fill:rgb(229,171,76);"/>
    <circle cx="37.25" cy="95.31" r="6.38" style="fill:rgb(196,121,48);"/>
    <path d="M31.13,58.04C31.22,56.28 33.3,54.88 35.85,54.88C37.74,54.88 39.36,55.65 40.11,56.76L40.15,56.75C40.44,57.33 40.59,57.98 40.59,58.66C40.59,61.15 38.46,63.17 35.84,63.17C33.21,63.17 31.09,61.15 31.09,58.66C31.09,58.45 31.1,58.24 31.13,58.04Z" style="fill:rgb(209,137,67);fill-rule:nonzero;"/>
    <circle cx="24.41" cy="77.99" r="3.42" style="fill:rgb(196,121,48);"/>
</svg>
